X:1
T:Title
%%score { ( 1 4 ) | ( 2 3 ) }
L:1/8
M:3/4
K:G
V:1 treble nm="Grand Piano"
V:4 treble 
V:2 bass 
V:3 bass 
V:1
 z2 z[Q:1/4=80] D B>B | [CA]3 [CD] [CA]>A | [G,B,G]4 B2 | d2 z2 z2 |[M:1/4] B2 |[M:2/4] z D B>B | %6
[M:3/4] [CA]3 [CD] [CA]>A | [G,B,G]4 BB | [B,^G]3 A dF |[M:5/8] [G,B,G]- [G,B,G]3 z | %10
[M:6/8] D [CFA]2 [CFA][CFA]D | [CFA] [CDA]2 [B,DG] [B,DG]2- | [B,DG] [D^GB]2 [DGB][DGB]E | %13
 [D^GB] [DEB]2 [CEA] [CEA]2- | [CEA][A,EA][A,E^G] [A,EA][A,E][Ed] | [Ec]GF [B,DG][B,D][Gc] | %16
 [DGB][A,CF][^G,C=F] [A,C^F][F,CD][FB] |[M:2/4] [CFA] [B,DG]3 |] %18
V:2
 z2 z B, D>D | [D,,D,]4 z z/ C/ | G,,4 D2 | z2 EE ^DD |[M:1/4] D2 |[M:2/4] z B, D>D | %6
[M:3/4] [D,,D,]4 z z/ C/ | G,,4 DD | z2 z[K:treble] C F[K:bass]C |[M:5/8] G,,- G,,3 z | %10
[M:6/8] D, D,2 D,D,D, | D, G,2 G, G,2- | G, E,2 E,E,E, | E, A,2 A, A,2- | A,C,C, C,C,[C,A,] | %15
 [C,A,]B,_B, .D,2 E | D,D,D, .D,2 D |[M:2/4] D, G,,3 |] %18
V:3
 x6 | z2 z2 [D,,D,]2 | x6 | [G,,G,]6- |[M:1/4] [G,,G,]2 |[M:2/4] x4 |[M:3/4] z2 z2 [D,,D,]2 | x6 | %8
 [D,,D,]6[K:treble][K:bass] |[M:5/8] x5 |[M:6/8] x6 | x6 | x6 | x6 | x6 | z [D,D]2 z D,2 | %16
 z3 z D,2 |[M:2/4] x4 |] %18
V:4
 x6 | x6 | x6 | F=F cG AG |[M:1/4] x2 |[M:2/4] x4 |[M:3/4] x6 | x6 | x6 |[M:5/8] x5 |[M:6/8] x6 | %11
 x6 | x6 | x6 | x6 | x6 | x6 |[M:2/4] x4 |] %18

